X:1
T:Derry Down
M:6/8
L:1/8
K:C
 z4 zA,/2-A,/2| A,EE EDE| CDC B,2B,/2-B,/2| CB,C DCD| ECD E2E/2-E/2|\
 EDE AAA| GAG D2 E/2E/2| AEE EDE| CDC B,CB,| A,3 E3| B,CB, A,2 z|
